X:11
T: Come Hither to Go Yonder
C: Bill Monroe
S: From a live performance recording, Washington DC 1982
Z: Transcribed by Mike Stangeland
S: MandoZine TablEdit Archives
L: 1/8
Q: 520
M: 4/4
K: A
 =z4 a=g e=c | A2 [e=c][eB] A=G ED | [E2=C2] [E=C][E=C] [EB,][EB,] [EB,]=G, | A,A, zA, A,A, A,2 | A,8
 |: "A"[A=G][AA] [AA][AA] A=G EC | A,2 A,A, A,A, A,B, | "D"=C=C =C=C "C"B,D B,=G, | "A"A,2 AA =G[AA] AA |
 A2 AA A=G E=C | A,2 A,A, A,C DD | "E"DE EE E=G E=G | E2 EE =G[AA] [AA][AA] |
 "A"A2 AA AB, DA, | A,2 [AEA,][AEA,] [AEA,][AEA,] [EA,][EA,] |
 "D"[E=C][E=C] [E=C][ED] "C"[EB,][ED] [EB,][D=G,] | "A"[E2A,2] DE =G[AA] [AA][AA]
 |1 A2 AA DC DD | "E"A,=C =C=C B,=C B,=G, | "A"A,2 A,A, A,A, A,A, |
 A,8 :|2 [e2A2] AA AE ED | "E"=C2 [A2E2] B,2 [A2E2] | "A"[E2A,2] [EA,][E2A,2][EA,] [E2A,2] | [A4E4A,4] a=g e=c |
K: Am
 "Am"A2 AA cB AG | [A2E2] A[AE] EG EG |
 "Dm"[A2D2] [AE][AD] [DC][DG,] [DB,][AD] | "Am"[E2A,2] [eAE]a ag ec |
 A2 [eA][eA] cB AG | [A2E2] DG, A,C [AD][AD] |
 "E"D[AE] [AE][AE] [AE][AG] [AE][AG] | [A2E2] [eAE]a ag ec |
 "Am"[e2A2] [eA][eA] [ec][eB] [eA][AG] | [A2E2] [eA][AE] EG EG |
 "Dm"[A2D2] [AE][AD] [DC][DG,] [DB,][AD] | "Am"[E2A,2] [aA][aA] ag ec |
 A2 AA cB A^G | "E"E2 ED B,C B,C | "Am"[E2A,2] [A3D3][DA,] [DC][DG,] | [E8A,8] |
